dist/assets/uwm-icons/icon_not_accepting_patients.svg

<?xml version="1.0" encoding="UTF-8"?>
<svg width="24px" height="24px" viewBox="0 0 24 24" version="1.1" xmlns="http://www.w3.org/2000/svg" xmlns:xlink="http://www.w3.org/1999/xlink">
    <!-- Generator: Sketch 48.2 (47327) - http://www.bohemiancoding.com/sketch -->
    <title>icon_not_accepting_patients</title>
    <desc>Created with Sketch.</desc>
    <defs></defs>
    <g id="Icons" stroke="none" stroke-width="1" fill="none" fill-rule="evenodd">
        <g id="icon_not_accepting_patients">
            <rect id="Rectangle" fill="#FFFFFF" x="0" y="0" width="24" height="24"></rect>
            <path d="M11.9997336,19.8203185 C10.0560341,19.8203185 8.27910488,19.102599 6.90977711,17.9239832 L17.9240742,6.90989284 C19.1026552,8.27926114 19.8198206,10.0557101 19.8198206,12 C19.8198206,16.3121781 16.311784,19.8203185 11.9997336,19.8203185 M4.18017938,12 C4.18017938,7.68782192 7.68768315,4.17968149 11.9997336,4.17968149 C13.9434331,4.17968149 15.7203623,4.89740098 17.0896901,6.07548399 L6.07539295,17.0895743 C4.89734482,15.7207389 4.18017938,13.943757 4.18017938,12 M11.9997336,3 C7.03765207,3 3,7.03723877 3,12 C3,16.9627612 7.03765207,21 11.9997336,21 C16.9623479,21 21,16.9627612 21,12 C21,7.03723877 16.9623479,3 11.9997336,3" id="Fill-29" fill="#000000"></path>
        </g>
    </g>
</svg>

<svg width="24" height="24" xmlns="http://www.w3.org/2000/svg"><g fill="none" fill-rule="evenodd"><path fill="#FFF" d="M0 0h24v24H0z"/><path d="M12 19.82a7.779 7.779 0 0 1-5.09-1.896L17.924 6.91A7.778 7.778 0 0 1 19.82 12c0 4.312-3.508 7.82-7.82 7.82M4.18 12c0-4.312 3.508-7.82 7.82-7.82 1.943 0 3.72.717 5.09 1.895L6.075 17.09A7.779 7.779 0 0 1 4.18 12M12 3c-4.962 0-9 4.037-9 9s4.038 9 9 9 9-4.037 9-9-4.038-9-9-9" fill="#000"/></g></svg>
